icons/op-hosting-24.svg

<svg width="24" height="24" viewBox="0 0 24 24" fill="none" xmlns="http://www.w3.org/2000/svg">
<path d="M20 14.7128C20 15.6383 19.6875 16.4043 19.0625 17.0426C18.4375 17.6809 17.6875 18 16.8125 18H7.71875C6.71875 18 5.8125 17.617 5.09375 16.883C4.375 16.117 4 15.2234 4 14.1702C4 13.4362 4.1875 12.734 4.59375 12.1277C5 11.4894 5.5 11.0426 6.15625 10.7234C6.125 10.5638 6.125 10.4362 6.125 10.3723C6.125 9.15957 6.5625 8.1383 7.375 7.2766C8.21875 6.44681 9.21875 6 10.4062 6C11.2812 6 12.0625 6.25532 12.7812 6.76596C13.5 7.24468 14.0312 7.91489 14.3438 8.71277C14.75 8.3617 15.1875 8.17021 15.7188 8.17021C16.3125 8.17021 16.8125 8.39362 17.25 8.80851C17.6562 9.25532 17.875 9.76596 17.875 10.3723C17.875 10.7872 17.75 11.1702 17.5312 11.5532C18.25 11.7128 18.8438 12.0957 19.3125 12.6702C19.7812 13.2766 20 13.9468 20 14.7128Z" fill="black"/>
</svg>

<svg xmlns="http://www.w3.org/2000/svg" width="24" height="24" viewBox="0 0 24 24"><path d="M20 14.713c0 .925-.312 1.691-.938 2.33-.624.638-1.374.957-2.25.957H7.719c-1 0-1.907-.383-2.625-1.117C4.375 16.117 4 15.223 4 14.17c0-.734.188-1.436.594-2.042a3.714 3.714 0 0 1 1.562-1.405c-.031-.159-.031-.287-.031-.351 0-1.212.437-2.234 1.25-3.095C8.219 6.447 9.219 6 10.406 6c.875 0 1.656.255 2.375.766a4.121 4.121 0 0 1 1.563 1.947c.406-.351.844-.543 1.375-.543.593 0 1.093.224 1.531.639.406.446.625.957.625 1.563 0 .415-.125.798-.344 1.181.719.16 1.313.543 1.781 1.117A3.22 3.22 0 0 1 20 14.713Z"/></svg>
